!!!COM:	Japart, Jean
!!!CDT:	~1450//-~1507//
!!!OTL:	Pour passer temps
!!!AGN:	Song; Chanson
!!!SCT:	Jap3016
!!!SCA:	Jap3016
!!!voices:	4
**kern	**kern	**kern	**kern
*staff4	*staff3	*staff2	*staff1
*Ivox	*Ivox	*Ivox	*Ivox
*I"Bassus	*I"Tenor	*I"Contra	*I"Discantus
*I'B	*I'T	*I'C	*I'D
*clefF4	*clefGv2	*clefGv2	*clefG2
*k[b-]	*k[b-]	*k[b-]	*k[b-]
*M2/1	*M2/1	*M2/1	*M2/1
*met(C|)	*met(C|)	*met(C|)	*met(C|)
!	!LO:TX:X=-40:Z=8:t=Inner voices are quasi canonic	!	!
=1-	=1-	=1-	=1-
0G	1B-	0r	0d
.	1B-	.	.
=2	=2	=2	=2
1C	1.c	0r	1e
1F	.	.	1c
.	2A	.	.
=3	=3	=3	=3
1E	1G	1B-	1e
1D	1F	1B-	1f
=4	=4	=4	=4
2.C	1G	1.c	1e
4BB-	.	.	.
2AA	1r	.	2c
2FF	.	2A	[2d
=5	=5	=5	=5
2.BB-	1d	1G	4d]
.	.	.	4c
.	.	.	2B-
4C	.	.	.
1D	1d	1F#i	1A
=6	=6	=6	=6
2r	1d	1G	1B-
1G	.	.	.
.	1e	1r	1G
4F	.	.	.
4E	.	.	.
=7	=7	=7	=7
1.D	1f	1d	0A
.	1f	1d	.
2C	.	.	.
=8	=8	=8	=8
1BB-	1.g	1d	1G
1GG	.	1e	2r
.	4f	.	2g
.	4e	.	.
=9	=9	=9	=9
0D	0d	1f	1a
.	.	1f	1a
=10	=10	=10	=10
1BB-	0r	1.g	1b-
1C	.	.	[1g
.	.	4f	.
.	.	4e	.
=11	=11	=11	=11
0D	1B-	0d	2g]
.	.	.	2.f
.	1B-	.	.
.	.	.	4e
.	.	.	2d
=12	=12	=12	=12
0C	1.c	0r	1.e
.	2B-	.	[2g
=13	=13	=13	=13
0r	1G	1B-	2g]
.	.	.	2a
.	1G	1B-	1b-
=14	=14	=14	=14
1r	0F	1.c	2a
.	.	.	2.a
1AA	.	.	.
.	.	.	4g
.	.	2A	[2f
=15	=15	=15	=15
1BB-	0r	1G	2f]
.	.	.	4e
.	.	.	4d
1C	.	1G	1e
=16	=16	=16	=16
0D	0r	0F	0f
=17	=17	=17	=17
0GG	1B-	0r	1r
.	1B-	.	1d
=18	=18	=18	=18
1.C	1G	0r	2.e
.	.	.	4f
.	1G	.	[1g
4BB-	.	.	.
4AA	.	.	.
=19	=19	=19	=19
1GG	1d	1B-	2g]
.	.	.	2a
[1G	1d	1B-	[1b-
=20	=20	=20	=20
2G]	1.B-	1G	2b-]
2F	.	.	2a
1E	.	1G	2g
.	2G	.	4f
.	.	.	4e
=21	=21	=21	=21
0D	0A	1d	2f
.	.	.	2g
.	.	1d	[1a
=22	=22	=22	=22
0E-i	0G	1.B-	2a]
.	.	.	2d
.	.	.	[1g
.	.	2G	.
=23	=23	=23	=23
0D	0r	0A	2g]
.	.	.	4f#i
.	.	.	4e
.	.	.	1f#i
=24	=24	=24	=24
1.E-i	0r	0G	2.g
.	.	.	4a
.	.	.	2b-
2F	.	.	[2g
=25	=25	=25	=25
1.G	1B-	0r	2g]
.	.	.	4f
.	.	.	4e
.	1B-	.	2d
4F	.	.	2g
4E	.	.	.
=26	=26	=26	=26
2F	1A	0r	2a
2.D	.	.	2.f
.	1d	.	.
4E	.	.	4g
2F	.	.	2a
=27	=27	=27	=27
2G	1d	0r	2b-
2B-	.	.	1g
1A	1c	.	.
.	.	.	2f#i
=28	=28	=28	=28
1G	1d	1B-	0g
2r	1B-	1B-	.
[2G	.	.	.
=29	=29	=29	=29
2G]	1c	1A	0r
2F	.	.	.
1G	1B-	1d	.
=30	=30	=30	=30
2D	1A	1d	0r
2F	.	.	.
2E	1G	1c	.
4D	.	.	.
4C	.	.	.
=31	=31	=31	=31
2.BB-	1G	1d	1r
4C	.	.	.
1D	1F	1B-	1d
=32	=32	=32	=32
2.C	0G	1c	2e
.	.	.	2c
4BB-	.	.	.
2GG	.	1B-	2d
2G	.	.	2e
=33	=33	=33	=33
2F	0r	1A	1f
4E	.	.	.
4D	.	.	.
4E	.	1G	1B-
4D	.	.	.
4C	.	.	.
4BB-	.	.	.
=34	=34	=34	=34
0AA	0r	2A	0c
.	.	1F#i	.
.	.	4E	.
.	.	4F#	.
=35	=35	=35	=35
[0GG	0r	0G	1.B-
.	.	.	2c
=36	=36	=36	=36
!	!	!LO:TX:X=-20:Z=2:t=Canon at unison (three breves)	!
0GG]	0r	1B-	2d
.	.	.	1G
.	.	1B-	.
.	.	.	2d
=37	=37	=37	=37
0r	0r	1A	2e
.	.	.	2.f
.	.	1d	.
.	.	.	4g
.	.	.	[2a
=38	=38	=38	=38
0r	0r	1d	4a]
.	.	.	4g
.	.	.	2f
.	.	1c	1e
=39	=39	=39	=39
0r	1B-	1d	1.d
.	1B-	1B-	.
.	.	.	4c
.	.	.	4d
=40	=40	=40	=40
1r	1A	1c	2.e
.	.	.	4f
1GG	1d	1B-	2.g
.	.	.	4e
=41	=41	=41	=41
1D	1d	1A	1f
1E	1c	[1G	1g
=42	=42	=42	=42
0D	1d	2G]	1.f
.	.	4F	.
.	.	4E	.
.	1B-	1F	.
.	.	.	4e
.	.	.	4f
=43	=43	=43	=43
1C	1c	0G	1e
1GG	1B-	.	1d
=44	=44	=44	=44
1AA	1A	0r	1c
2BB-	1G	.	1B-
2GG	.	.	.
=45	=45	=45	=45
0D	2A	0r	0A
.	1F#i	.	.
.	4E	.	.
.	4F#i	.	.
=46	=46	=46	=46
1GG	0G	0r	1G
1C	.	.	1r
=47	=47	=47	=47
*	*	*rscale:2	*
*	*rscale:2	*	*
2BB-	0r	2B-	1d
2.D	.	2B-	.
.	.	2A	1d
4C	.	.	.
2BB-	.	2G	.
=48	=48	=48	=48
1AA	1r	2G	1c
.	.	2F#i	.
1GG	2B-	2G	2B-
.	2B-	2r	[2d
=49	=49	=49	=49
2r	2A	1r	2d]
2GG	2G	.	4c
.	.	.	4B-
1D	2G	2d	1A
.	2F#i	2d	.
=50	=50	=50	=50
2BB-	2G	2d	1G
2C	2r	2e	.
1D	2d	2f	1r
.	2d	2f	.
=51	=51	=51	=51
1GG	2d	2.g	1b-
.	2e	.	.
.	.	8fL	.
.	.	8eJ	.
2r	2f	1d	2a
2D	2f	.	2a
=52	=52	=52	=52
2.BB-	2.g	1r	2.b-
4C	8fL	.	4a
.	8eJ	.	.
1D	1d	2B-	1f
.	.	2B-	.
=53	=53	=53	=53
1C	1r	2.c	2e
.	.	.	2.g
.	.	8B-L	.
.	.	8AJ	.
2r	2B-	2G	.
.	.	.	4a
2GG	2B-	2G	2b-
=54	=54	=54	=54
2AA	2.c	1F	2a
2BB-	.	.	4g
.	8B-L	.	4f
.	8AJ	.	.
1C	2G	1r	2.e
.	2G	.	.
.	.	.	4d
=55	=55	=55	=55
2D	1F	1r	2f
2.BB-	.	.	2.d
.	1r	2B-	.
4AA	.	.	4c
[2GG	.	2B-	4B-
.	.	.	4A
=56	=56	=56	=56
2GG]	1r	2G	2B-
2.G	.	2G	1G
.	2B-	2d	.
4F	.	.	.
4E-i	2B-	2d	[2g
4D	.	.	.
=57	=57	=57	=57
1E-i	2G	2.B-	2g]
.	2G	.	4f
.	.	4G	4e
1D	2d	1A	4f
.	.	.	4g
.	2d	.	[2a
=58	=58	=58	=58
1E-i	2.B-	1G	4a]
.	.	.	4d
.	.	.	1g
.	4G	.	.
1D	1A	1r	.
.	.	.	2f#i
=59	=59	=59	=59
[0GGl	[0Gl	1G	[0gl
.	.	1d	.
=60	=60	=60	=60
0GG]	0G]	0B-l	0g_
*	*rscale:1	*rscale:1	*
==	==	==	==
*-	*-	*-	*-
!!!RDF**kern: l=long note in original notation
!!!RDF**kern: i=editorial accidental
!!!ENC:	Chris Gage 09-18-2013
!!!END:	2013/10/17/
!!!EED:	Jesse Rodin
!!!EEV:	2013/12/19/
!!!ONB:	Translated from MusicXML and edited on 2013/12/19/ by Craig Sapp
!!muse2ps: C^@{COM}^i2I150v90,85,85,100Q8c120
